X:455
T:Lord Macdonald's Reel
B:Alexander MacGlashan's Collection
Z:Nigel Gatherer
M:4/4
L:1/8
K:D
    d>ef>e d>BA>d | B>ABd  e/e/e e>g |\
    f>efb  a>fef  | d>BA>F D/D/D D  :|
B | A>DF>D A>Dd>A | B>EG>E Bee>B     |\
    daa>g  f>efd  | egf>e  d/d/d d :|]
<end>
<start>
